public/images/well/shape/2.svg

<svg width="100%" height="100%" preserveAspectRatio="none" viewBox="0 0 132 132" fill="none" xmlns="http://www.w3.org/2000/svg">
<path d="M50.5372 124.691L65.7848 112.333L81.0323 124.691C86.6179 129.219 93.4063 131.609 100.671 131.609C117.71 131.609 131.569 117.983 131.569 101.243C131.569 92.0409 127.598 85.5027 124.265 81.6364L110.631 65.8238L124.265 50.0113C127.598 46.1449 131.569 39.6068 131.569 30.405C131.569 13.6642 117.71 0.0390625 100.671 0.0390625C93.4063 0.0390625 86.6179 2.4283 81.0323 6.95655L65.7848 19.3144L50.5372 6.95655C44.9516 2.4283 38.1632 0.0390625 30.8987 0.0390625C13.8592 0.0390625 0 13.6642 0 30.405C0 39.6068 3.97129 46.1449 7.30492 50.0113L20.9381 65.8238L7.30492 81.6364C3.97129 85.5027 0 92.0409 0 101.243C0 117.983 13.8592 131.609 30.8987 131.609C38.1632 131.609 44.9516 129.219 50.5372 124.691Z" fill="#0E0E0E"/>
</svg>

<svg preserveAspectRatio="none" viewBox="0 0 132 132" fill="none" xmlns="http://www.w3.org/2000/svg"><path d="m50.537 124.691 15.248-12.358 15.247 12.358c5.586 4.528 12.374 6.918 19.639 6.918 17.039 0 30.898-13.626 30.898-30.366 0-9.202-3.971-15.74-7.304-19.607l-13.634-15.812 13.634-15.813c3.333-3.866 7.304-10.404 7.304-19.606 0-16.74-13.859-30.366-30.898-30.366-7.265 0-14.053 2.39-19.639 6.918L65.785 19.314 50.537 6.957C44.952 2.428 38.163.039 30.9.039 13.859.04 0 13.664 0 30.405c0 9.202 3.971 15.74 7.305 19.606l13.633 15.813L7.305 81.636C3.97 85.503 0 92.041 0 101.243c0 16.74 13.86 30.366 30.899 30.366 7.264 0 14.053-2.39 19.638-6.918Z" fill="#0E0E0E"/></svg>
